**kern	**kern	**dynam
*part1	*part1	*part1
*staff2	*staff1	*
*I"Piano	*	*
*clefF4	*clefG2	*
*k[b-e-a-d-g-c-]	*k[b-e-a-d-g-c-]	*
=1	=1	=1
8GG#X	4f#X	<
4Dn 4F#X 4Bn	.	.
.	4en	.
4D 4F# 4B	.	.
.	4d#X	.
4D 4F# 4B	.	.
.	4dn)	.
8D 8F# 8B	.	.
=	=	=
*	*^	*
1C#X	[1g#X	2dn 2f#X	[
.	.	2c#X 2e#X	.
=	=	=	=
1C#X	2g#X]	2B#X 2d#X	.
.	2rg	2Bn 2dn	>
*	*v	*v	*
=	=	=
2GG- 2G-	2B-X 2g-	.
2C- 2G-	2c- 2e-	]
=	=	=
2.FF 2.Dn	2.c- 2.a-	.
4r	4r	.
=	=	=
1D-X;	2B- 2g-	p
.	2c-; 2f	.
=	=	=
2GG-: 2D-: 2B-:	2g-: 2b-: 2gg-:	.
*clefG2	*	*
*	*^	*
!	!LO:TX:b:t=rall.	!	!
2c- 2g-	(4ee-	(2cc-	.
.	8ffL	.	.
.	8gg-J	.	.
=	=	=	=
(2.e--^	(2bb-	[2cc-	.
.	4aa-))	4cc-])	.
8d-)	4r	4r	.
8r	.	.	.
*	*v	*v	*
=||	=||	=||
*-	*-	*-
!!!system-decoration: {(s1,s2)}
